assets/icons/qvision/text_rotation_none.svg

<svg xmlns="http://www.w3.org/2000/svg" height="24" viewBox="0 0 24 24" width="24"><path d="M0 0h24v24H0z" fill="none"/><path d="M12.75 3h-1.5L6.5 14h2.1l.9-2.2h5l.9 2.2h2.1L12.75 3zm-2.62 7L12 4.98 13.87 10h-3.74zm10.37 8l-3-3v2H5v2h12.5v2l3-3z"/></svg>

<svg width="24" height="24" viewBox="0 0 24 24" fill="none" xmlns="http://www.w3.org/2000/svg">
<g clip-path="url(#clip0_147_4864)">
<path d="M12.75 3H11.25L6.5 14H8.6L9.5 11.8H14.5L15.4 14H17.5L12.75 3ZM10.13 10L12 4.98L13.87 10H10.13ZM20.5 18L17.5 15V17H5V19H17.5V21L20.5 18Z" fill="#323232"/>
</g>
<defs>
<clipPath id="clip0_147_4864">
<rect width="24" height="24" fill="white"/>
</clipPath>
</defs>
</svg>
